X:1
T:Dans le Genre Gothique
T:Dans le Genre Gothique
T:Charles Valentin-Alkan
T:Preludes: Op. 31 No. 15
C:Charles Valentin-Alkan
%%score { ( 1 3 4 ) | ( 2 5 ) }
L:1/8
Q:1/4=160
M:4/4
K:G
V:1 treble nm="Piano" snm="Pno."
V:3 treble 
V:4 treble 
V:2 bass 
V:5 bass 
V:1
"^Molto vivo e con Grazia \n\n""^Molto dolce e legato"!<(! [B,D]2 [B,DG]2 | %1
 [DGB]2 [Bdg]2!<)!!>(! [Gcf]2 [Gce]2 | [GBd]3!>)! B G2 [GA]2 | B2 AB cBAG | %4
 [GB]2 [FA]2!<(! [B,D]2 [B,DG]2 | [DGB]2 [Bdg]2!<)!!>(! [Gcf]2 [G^ce]2 | a3 g d2!>)! [de]2 | %7
 f2 ef gfed | [^cf]2 d2 :| [Bdg]2 [GBd]2 | B2 AB cBed |!>(! d2 c2!>)! [ca]2 [Af]2 | g2 dB edcB | %13
 [GB]2 [FA]2 [Bdg]2 [GBd]2 | B2 AB cBed | d2 c2 [Beg]2 [GBe]2 | ^d2 ^cB e2 g2 | !>!a3 f g2 e2 | %18
 ^d2 ^cd e2 g2 | a3 f agfe | a3 f agfe | !>![Bb]2 B z !>![Bb]2 B z |!>(! c'3 a fdcA | %23
 FDCA,!>)!!p!!<(! [B,D]2 [B,DG]2 | [DGB]2 [Bdg]2!<)!!>(! [Gcf]2 [Gce]2 | [GBd]3!>)! B G2 [FG]2 | %26
 B2 AB cBAG | [GB]2 [FA]2!<(! [B,D]2 [B,DG]2 | [DGB]2 [Bdg]2!<)!!>(! [Adf]2 [A^ce]2 | %29
 a3 g d2!>)! e2 | f2 ef gfed | [^cf]2 d2 || [Bg]2 [Gd]2 | B2 AB cBed | d2 c2 [ca]2 [Af]2 | %35
 g2 dB edcB | [GB]2 [FA]2 [Bdg]2 [GBd]2 | B2 AB cBed | d^c =c2 [Beg]2 [GBe]2 | ^d2 ^cB e2 g2 | %40
 !>!a3 f g2 fe | e^d^cd e2 fg | a3 f agfe | a3 f!<(! agfe!<)! | %44
!f! (!>![B^db]2 B) z (!>![Bdb]2 B) z |!>(! =c'3 a fdcA | FDxx!>)! z4 |xxxC!pp!!<(! [B,D]2 [B,DG]2 | %48
 [DGB]2!<)!!>(! [Bdg]2 [Gcf]2 [Gce]2!>)! | [GBd]3 B G2 A2 | B2 AB cBAG | %51
 [GB]2 [FA]2!<(! [B,D]2 [B,DG]2 | [DGB]2 [Bdg]2!<)!!>(! [Adf]2 [A^ce]2 | %53
 (a3 g)!>)!!<(! [A,=C]2 [A,C=F]2 | [C=FA]2!<)!!>(! [Ac=f]2 [Gce]2 [GBd]2 | (g3 e)!>)! x4 | %56
 ([CE]2 [EGc]2 [DGB]2 [DFA]2) | d3 B G2 [GA]2 |!p! !>![Gg]4 G2 [GA]2 | !>![Gg]4 G2 [GA]2 | %60
 B2 AB [Gc]BAG | [FB]2 [DG]2 [Gc]BAG | [FB]2 [DG]2 cBAG |"_dim." ([FB]2 [DG]2 [FB]2 [DG]2 | %64
 [FB]2 [DG]2 [FB]2 [DG]2) | z8 | z4!p!!>(! ([FB]4 | [DG]8)!>)! |!pp! [B,DG]4 [B,DG]4 | [B,DG]8 | %70
!ppp! [B,DG]8 | !fermata![B,DG]8 |] %72
V:2
 G,2 G,2 | G,4 C,2 E,2 | G,3 D [G,B,]2 [G,C]2 | D2 CD x DCB, | D3 C x4 | G,2 E,2 A,2 G,2 | %6
 F,4[K:treble] [CF]2 [DG]2 | A2 GA x AGF | [A,G]2 [CF]2 :|[K:bass] G,2 G,2 | D2 CD EDCB, | %11
 B,2 A,2 [DF]2 [CD]2 | D4 CB,A,G, | D3 C G,2 G,2 | D2 CD EDCB, | B,2 A,2 E,2 G,2 | B,4 G2 F2 | %17
 ^D2 ^CD E2 G2 | A3 F G2 FE | E^D^CD E2 G2 | E^D^CD E2 G2 | [B,^D]3 z [B,D]3 z | [=DF]4 z4 | %23
 z4 G,2 G,2 | G,4 C,2 E,2 | G,3 D [G,B,]2 [G,C]2 | D2 CD x DCB, | D3 C x4 | G,2 E,2 A,2 G,2 | %29
 F,3 A,[K:treble] F2 G2 | A2 GA x AGF | [A,G]2 [DF]2 ||[K:bass] G,2 G,2 | D2 CD EDCB, | %34
 B,2 A,2 [DF]2 [CD]2 | D4 CB,A,G, | D3 C G,2 B,2 | D2 CD EDCB, | B,^A, =A,2 E,2 G,2 | %39
 B,4[K:treble] G2 F2 | ^D2 ^CB, E2 G2 | !>!A3 F AGFE | E^D^CD E2 FG | E^D^CD E2 FG | %44
 [B,^DF]3 z [B,DF]3 z | [=DFA]4 z4 |[K:bass] x2 CA, .F,.D,.E,.F, | .G,.A,.B, z x4 | G,4 (C,D,E,F, | %49
 G,4) [G,B,]2 [G,C]2 | D2 CD x DCB, | D3 C x4 | G,2 E,2 A,2 G,2 | F,4 =F,2 F,2 | =F,2 D,2 G,2 F,2 | %55
 E,4 ([E,G,]2 [E,G,C]2) | [C,G,]2 A,,2 D,2 C,2 | B,,3 D, [G,B,]2 [G,C]2 | (D3 G) B,2 C2 | %59
 (D3 G) B,2 C2 | D2 CD x DCB, | [D,C]2 [G,B,]2 D,2 G,2 | [D,C]2 [G,B,]2 D,2 G,2 | %63
 ([D,C]2 [G,B,]2 [D,C]2 [G,B,]2 | [D,C]2 [G,B,]2 [D,C]2 [G,B,]2) |!>(! _E,,8- | E,,4!>)! [D,C]4 | %67
 [G,B,]8 | ([D,G,]4 [B,,D,G,]4 | [G,,D,G,]8) | [G,,D,G,]8 | !fermata![G,,D,G,]8 |] %72
V:3
 x4 | x8 | x8 | G8 | x8 | x8 | [Ad]4 x4 | d8 | x4 :| x4 | G4 x4 | G2 F2 x4 | G4 G2 G2 | x8 | %14
 G4 x4 | G2 F2 x4 | [FB]4 B2 B2 | [AB]4 B2 B2 | !>!B4 B2 B2 | !>![AB]4 B2 B2 | !>![AB]4 B2 B2 | %21
 x8 | [=cd]4 z4 | x8 | x8 | x8 | G4 G2 x2 | x8 | x8 | [Ad]4 d2 d2 | d4 d2 x2 | x4 || x4 | %33
 G4 G2 G2 | G2 F2 x4 | G4 G2 C2 | x8 | G4 G2 G2 | G2 F2 x4 | [FB]4 B2 B2 | [AB]4 [GB]2 B2 | %41
 B4 B2 B2 | !>![AB]4 B2 B2 | !>![AB]4 B2 B2 | x8 | [=c=df]4 z4 | x8 | x8 | x8 | x3 D G2 G2 | %50
 G4 x4 | x8 | x8 | [Ad]4 x4 | x8 | [Gc]4 x4 | x8 | [DG]4 x4 | B3 d x4 | B3 d x4 | G4 E x3 | %61
 x4 E x3 | x4 [EG] x3 | x8 | x8 | x8 | x8 | x8 | x8 | x8 | x8 | x8 |] %72
V:4
 x4 | x8 | x8 | x4 E x3 | x8 | x8 | x8 | x4 B x3 | x4 :| x4 | x8 | x8 | x8 | x8 | x8 | x8 | x8 | %17
 x8 | x8 | x8 | x8 | x8 | x8 | x8 | x8 | x8 | x4 E x3 | x8 | x8 | x8 | x4 B x3 | x4 || x4 | x8 | %34
 x8 | x8 | x8 | x8 | x8 | x8 | x8 | x8 | x8 | x8 | x8 | x8 | x8 | x8 | x8 | x8 | x4 E x3 | x8 | %52
 x8 | x8 | x8 | x8 | x8 | x8 | x8 | x8 | x8 | x8 | x8 | x8 | x8 | x8 | x8 | x8 | x8 | x8 | x8 | %71
 x8 |] %72
V:5
 x4 | x8 | x8 | G,4 C,2 E,2 | D,4 G,2 G,2 | x8 | x4[K:treble] x4 | D4 G,2 B,2 | x4 :|[K:bass] x4 | %10
 G,4 G,2 G,2 | D,4 x4 | B,3 G, C,2 E,2 | D,4 G,2 G,2 | G,4 G,2 G,2 | D,2 D,2 x4 | x4 B,2 B,2 | %17
 B,4 B,2 B,2 | B,4 B,2 B,2 | B,4 B,2 B,2 | B,4 B,2 B,2 | x8 | x8 | x8 | x8 | x8 | G,4 C,2 E,2 | %27
 D,4 G,2 G,2 | x8 | x4[K:treble] D2 D2 | D4 G,2 B,2 | x4 ||[K:bass] x4 | G,4 G,2 G,2 | D,4 x4 | %35
 B,3 G, C,2 E,2 | D,4 G,2 G,2 | G,4 G,2 G,2 | D,4 x4 | x4[K:treble] B,2 B,2 | B,4 B,2 B,2 | %41
 B,4 B,2 B,2 | B,4 B,2 B,2 | B,4 B,2 B,2 | x8 | x8 |[K:bass] x8 | z4 G,2 G,2 | x8 | x8 | %50
 G,4 C,2 E,2 | D,4 G,2 G,2 | x8 | x8 | x8 | x4 C,2 C,2 | x8 | x8 | G,4 G,2 G,2 | G,4 G,2 G,2 | %60
 G,4 C,2 E,2 | x5 DCB, | x5 DCB, | x8 | x8 | x8 | x8 | x8 | x8 | x8 | x8 | x8 |] %72

